svg/monochrome/analytics.svg

<svg xmlns="http://www.w3.org/2000/svg" viewBox="0 0 24 24"><path class="uim-primary" d="M5 22a.99974.99974 0 0 1-1-1V13a1 1 0 0 1 2 0v8A.99974.99974 0 0 1 5 22zM10 22a.99974.99974 0 0 1-1-1V3a1 1 0 0 1 2 0V21A.99974.99974 0 0 1 10 22zM15 22a.99974.99974 0 0 1-1-1V9a1 1 0 0 1 2 0V21A.99974.99974 0 0 1 15 22zM20 22a.99974.99974 0 0 1-1-1V17a1 1 0 0 1 2 0v4A.99974.99974 0 0 1 20 22z"/></svg>

<svg xmlns="http://www.w3.org/2000/svg" viewBox="0 0 24 24"><path class="uim-primary" d="M5 22a1 1 0 0 1-1-1v-8a1 1 0 0 1 2 0v8a1 1 0 0 1-1 1zm5 0a1 1 0 0 1-1-1V3a1 1 0 0 1 2 0v18a1 1 0 0 1-1 1zm5 0a1 1 0 0 1-1-1V9a1 1 0 0 1 2 0v12a1 1 0 0 1-1 1zm5 0a1 1 0 0 1-1-1v-4a1 1 0 0 1 2 0v4a1 1 0 0 1-1 1z"/></svg>
